img/logo.svg

<svg width="60" height="60" viewBox="0 0 60 60" fill="none" xmlns="http://www.w3.org/2000/svg">
<path d="M54.0451 5.95494C50.1824 2.12446 45.0966 0 39.6566 0C34.2167 0 29.1309 2.12446 25.2682 5.95494C22.2747 8.9485 20.3111 12.7468 19.603 16.8348C19.5386 17.2532 19.4742 17.6717 19.442 18.0901C19.4099 18.5086 19.3777 18.927 19.3455 19.3455C19.3133 19.6674 19.3133 20.0215 19.3133 20.3433V23.1116V24.367V25.6223V40.7189H34.4099H35.6652H36.9206C36.9528 40.3648 36.9528 40.0429 36.9528 39.6888V36.9528H35.6974H23.0794V25.5901V23.1116V20.3755C23.0794 20.0215 23.0794 19.6996 23.1116 19.3455C23.1438 18.927 23.176 18.5086 23.2403 18.0901C23.3047 17.6717 23.3691 17.2532 23.4657 16.8348C24.1416 13.6803 25.7511 10.8476 27.9399 8.62661C30.9335 5.63305 35.0858 3.76609 39.6566 3.76609C48.7983 3.76609 56.2339 11.2017 56.2339 20.3433C56.2339 24.9142 54.3669 29.0665 51.3734 32.0601C49.1524 34.2811 46.3197 35.8584 43.1652 36.5343V36.8884V39.6567C43.1652 39.9142 43.1652 40.1395 43.1652 40.397C47.2532 39.6888 51.0515 37.7253 54.0451 34.7318C57.8755 30.9013 60 25.7833 60 20.3433C60 14.9034 57.8755 9.78541 54.0451 5.95494Z" fill="#F7654A"/>
<path d="M23.0794 23.0794H24.3348H25.5901H36.9528V34.442V35.6974V36.9528V39.6888C36.9528 40.0429 36.9528 40.3648 36.9206 40.7189C36.8884 41.1373 36.8562 41.5558 36.7919 41.9742C36.7275 42.3927 36.6631 42.8111 36.5665 43.2296C35.8906 46.3841 34.2811 49.2167 32.0923 51.4378C29.0987 54.4313 24.9464 56.2983 20.3755 56.2983C11.2339 56.2983 3.79828 48.8626 3.79828 39.721C3.79828 35.1502 5.66524 30.9978 8.6588 28.0043C10.8798 25.7833 13.7124 24.206 16.867 23.53V20.4077C16.867 20.1502 16.867 19.9249 16.867 19.6674C12.779 20.3755 8.98069 22.339 5.98713 25.3326C2.12446 29.0987 0 34.2167 0 39.6566C0 45.0966 2.12446 50.1824 5.95494 54.0451C9.78541 57.8755 14.9034 60 20.3433 60C25.7833 60 30.8691 57.8755 34.7318 54.0451C38.3369 50.4399 40.4292 45.7081 40.6545 40.6545C40.6545 40.4936 40.6545 40.3326 40.6867 40.1717C40.6867 40.0751 40.6867 40.0107 40.6867 39.9142C40.6867 39.8176 40.6867 39.7532 40.6867 39.6566V36.8884V19.3133H25.5901H24.3348H23.0794C23.0472 19.6674 23.0472 19.9893 23.0472 20.3433L23.0794 23.0794Z" fill="#F7654A"/>
</svg>

<svg width="60" height="60" fill="none" xmlns="http://www.w3.org/2000/svg"><path d="M54.045 5.955C50.182 2.125 45.097 0 39.657 0c-5.44 0-10.526 2.124-14.389 5.955a20.279 20.279 0 0 0-5.665 10.88c-.064.418-.129.837-.161 1.255l-.096 1.256c-.033.321-.033.675-.033.997V40.72h17.608c.032-.354.032-.676.032-1.03v-2.736H23.079V20.376c0-.355 0-.676.033-1.03.032-.419.064-.837.128-1.256.065-.418.13-.837.226-1.255.676-3.155 2.285-5.987 4.474-8.208a16.545 16.545 0 0 1 11.717-4.86c9.141 0 16.577 7.435 16.577 16.576 0 4.571-1.867 8.724-4.86 11.717a16.49 16.49 0 0 1-8.209 4.474V40.397a20.28 20.28 0 0 0 10.88-5.665A20.234 20.234 0 0 0 60 20.343c0-5.44-2.124-10.558-5.955-14.388z" fill="#F7654A"/><path d="M23.08 23.08h13.873v16.609c0 .354 0 .676-.032 1.03-.033.418-.065.837-.13 1.255-.063.419-.128.837-.224 1.256-.676 3.154-2.286 5.987-4.475 8.208a16.545 16.545 0 0 1-11.716 4.86c-9.142 0-16.578-7.435-16.578-16.577 0-4.57 1.867-8.723 4.86-11.717a16.491 16.491 0 0 1 8.209-4.474v-3.862a20.278 20.278 0 0 0-10.88 5.665C2.124 29.099 0 34.217 0 39.657c0 5.44 2.124 10.525 5.955 14.388A20.234 20.234 0 0 0 20.343 60c5.44 0 10.526-2.124 14.389-5.955 3.605-3.605 5.697-8.337 5.922-13.39 0-.161 0-.322.033-.483V19.313H23.079c-.032.354-.032.676-.032 1.03l.032 2.736z" fill="#F7654A"/></svg>
